_site/assets/hello.svg

<svg height="73" viewBox="0 0 76 73" width="76" xmlns="http://www.w3.org/2000/svg"><g fill="none" transform="translate(0 -1)"><path d="m67.1200285 46.68c.0056857 2.1496225-.8475317 4.2124647-2.3700285 5.73-.3449861.3372891-.8075353.5273287-1.29.5300105-.7380293.002483-1.4044972-.4409729-1.6872664-1.1226878-.2827692-.6817148-.1258495-1.4667045.3972664-1.9873227 1.7313359-1.7431519 1.7313359-4.5568481 0-6.3-.7124473-.7124473-.7124473-1.8675526.0000001-2.5799999.7124473-.7124474 1.8675526-.7124474 2.5799999-.0000001 1.5224968 1.5175353 2.3757142 3.5803775 2.3700285 5.73z" fill="#fff"/><g fill="#000"><path d="m31.86 30.59-6.31-6.31.09.08z"/><path d="m68.7 30.72c-.34-.4-.7-.78-1.07-1.14l-11.37-11.37c-2.0798641-2.0802857-5.2854005-2.532976-7.86-1.11l-8.6-8.61c-2.7920135-2.7723918-7.2979865-2.7723918-10.09 0-.877322.87008492-1.5087042 1.9568903-1.83 3.15-2.9222648-2.46177381-7.2656884-2.18229482-9.8483538.6336955-2.5826654 2.8159903-2.4863647 7.1673307.2183538 9.8663045l.41.41c-2.4345989.6900041-4.3221116 2.6170983-4.9614483 5.0654908-.6393368 2.4483925.0650205 5.0522891 1.8514483 6.8445092l1.24 1.24c-1.1788292.3222606-2.2516598.9500907-3.11 1.82-2.7712298 2.7885927-2.7712298 7.2914073 0 10.08l18 18c4.7994096 4.824268 11.3150761 7.5499165 18.12 7.5801409h.14c6.718351.0223199 13.1668606-2.6420559 17.91-7.4001409 9.5304089-9.6144483 9.9032975-24.9950055.85-35.06zm-3.47 32.45c-4.0824458 4.1119552-9.6560161 6.3954956-15.45 6.33-5.8441295-.0139615-11.44255-2.3526333-15.56-6.5l-18-18c-.6510692-.6518361-1.0116155-1.5387799-1.0002722-2.46-.010647-.9240332.3495911-1.8138212 1.0002722-2.47 1.3855452-1.3017401 3.5444548-1.3017401 4.93 0l12.59 12.57c.7197747.6448694 1.8180515.6147498 2.5014007-.0685993.6833491-.6833492.7134687-1.781626.0685993-2.5014007l-12.54-12.55-5.64-5.64c-1.3591971-1.3622861-1.3591971-3.5677139 0-4.93 1.3815639-1.3117537 3.5484361-1.3117537 4.93 0l15.45 15.45c.7124473.7096858 1.8653141.7074472 2.5749999-.0050001.7096859-.7124473.7074474-1.865314-.0049999-2.5749999l-20.26-20.26c-1.3483004-1.3667744-1.3483004-3.5632256 0-4.93 1.3869139-1.3080155 3.5530861-1.3080155 4.94 0l4 4 4.6 4.6 9 9c.7124473.7124473 1.8675527.7124473 2.58 0s.7124473-1.8675527 0-2.58l-9-9-4.65-4.65c-1.3591971-1.3622861-1.3591971-3.5677139 0-4.93 1.3815639-1.31175373 3.5484361-1.31175373 4.93 0l8.6 8.61c-1.419505 2.5752384-.9671274 5.7785608 1.11 7.86l4.72 4.72c-2.9682636 3.7948416-2.8765245 9.1490722.22 12.84.0348321.044854.075146.0851679.12.12.6587931.6763878 1.7282604.7287699 2.45.12.3723595-.3096143.6059738-.7548603.6491402-1.2371976.0431664-.4823372-.1076749-.9619898-.4191402-1.3328024-2.2002666-2.6229609-2.0174987-6.4959.42-8.9.0615632-.0684974.1284376-.132028.2-.19.4208749-.3192651.6832512-.804831.7196628-1.3318415.0364117-.5270105-.156694-1.044046-.5296628-1.4181585l-6-6c-.8257786-1.1931613-.6792289-2.8063141.348046-3.8311313 1.0272749-1.0248173 2.6407741-1.1675028 3.831954-.3388687l11.34 11.39c.31.31.6.62.9 1 7.7567652 8.606999 7.4630401 21.7676369-.67 30.02z"/><path d="m67.1200285 46.68c.0056857 2.1496225-.8475317 4.2124647-2.3700285 5.73-.3449861.3372891-.8075353.5273287-1.29.5300105-.7380293.002483-1.4044972-.4409729-1.6872664-1.1226878-.2827692-.6817148-.1258495-1.4667045.3972664-1.9873227 1.7313359-1.7431519 1.7313359-4.5568481 0-6.3-.7124473-.7124473-.7124473-1.8675526.0000001-2.5799999.7124473-.7124474 1.8675526-.7124474 2.5799999-.0000001 1.5224968 1.5175353 2.3757142 3.5803775 2.3700285 5.73z"/><path d="m59.69 17.1400275c-.482694 0-.9456181-.1917769-1.2869343-.5330932-.3413163-.3413162-.5330657-.8042403-.5330657-1.2869343-.0054992-2.4553857-1.9946143-4.4445008-4.45-4.45-1.0079197 0-1.825-.8170803-1.825-1.825 0-1.00791967.8170803-1.825 1.825-1.825 4.4712222.00550983 8.0944902 3.6287778 8.1 8.1 0 .4844316-.1931142.9488777-.5365963 1.2904828s-.8089794.5321789-1.2934037.5295447z"/><path d="m65.93 16.76c-1.0051582 0-1.82-.8148418-1.82-1.82-.0055191-5.69567298-4.6243243-10.31000267-10.32-10.31-.6520097.00000002-1.2544915-.34784301-1.5804964-.91249998-.3260049-.56465698-.3260049-1.26034306 0-1.82500004.3260049-.56465697.9284867-.91249998 1.5804964-.91249998 7.7319865 0 14 6.2680135 14 14-.0104929.4827323-.2123805.9415107-.561224 1.2753502s-.8160488.5153758-1.298776.5046498z"/><path d="m15.25 61.58c-4.4712222-.0055098-8.09449017-3.6287778-8.1-8.1 0-1.0079197.81708033-1.825 1.825-1.825s1.825.8170803 1.825 1.825c.0054992 2.4553857 1.9946143 4.4445008 4.45 4.45 1.0079197 0 1.825.8170803 1.825 1.825s-.8170803 1.825-1.825 1.825z"/><path d="m14.87 67.82c-7.7319865 0-14-6.2680135-14-14 0-1.0079197.81708033-1.825 1.825-1.825s1.825.8170803 1.825 1.825c-.00799841 2.7474349 1.07987622 5.3846477 3.02261429 7.3273857 1.94273806 1.9427381 4.57995081 3.0306127 7.32738571 3.0226143 1.0079197 0 1.825.8170803 1.825 1.825s-.8170803 1.825-1.825 1.825z"/></g></g></svg>

<?xml version="1.0" encoding="UTF-8"?>
<svg width="76px" height="73px" viewBox="0 0 76 73" version="1.1" xmlns="http://www.w3.org/2000/svg" xmlns:xlink="http://www.w3.org/1999/xlink">
    <!-- Generator: Sketch 63.1 (92452) - https://sketch.com -->
    <title>noun_hello_1356002</title>
    <desc>Created with Sketch.</desc>
    <g id="Page-1" stroke="none" stroke-width="1" fill="none" fill-rule="evenodd">
        <g id="noun_hello_1356002" transform="translate(0.000000, -1.000000)" fill-rule="nonzero">
            <path d="M67.1200285,46.68 C67.1257142,48.8296225 66.2724968,50.8924647 64.75,52.41 C64.4050139,52.7472891 63.9424647,52.9373287 63.46,52.9400105 C62.7219707,52.9424935 62.0555028,52.4990376 61.7727336,51.8173227 C61.4899644,51.1356079 61.6468841,50.3506182 62.17,49.83 C63.9013359,48.0868481 63.9013359,45.2731519 62.17,43.53 C61.4575527,42.8175527 61.4575527,41.6624474 62.1700001,40.9500001 C62.8824474,40.2375527 64.0375527,40.2375527 64.75,40.95 C66.2724968,42.4675353 67.1257142,44.5303775 67.1200285,46.68 L67.1200285,46.68 Z" id="Path" fill="#FFFFFF"></path>
            <polygon id="Path" fill="#000000" points="31.86 30.59 31.86 30.59 25.55 24.28 25.64 24.36"></polygon>
            <path d="M68.7,30.72 C68.36,30.32 68,29.94 67.63,29.58 L56.26,18.21 C54.1801359,16.1297143 50.9745995,15.677024 48.4,17.1 L39.8,8.49 C37.0079865,5.7176082 32.5020135,5.7176082 29.71,8.49 C28.832678,9.36008492 28.2012958,10.4468903 27.88,11.64 C24.9577352,9.17822619 20.6143116,9.45770518 18.0316462,12.2736955 C15.4489808,15.0896858 15.5452815,19.4410262 18.25,22.14 L18.66,22.55 C16.2254011,23.2400041 14.3378884,25.1670983 13.6985517,27.6154908 C13.0592149,30.0638833 13.7635722,32.6677799 15.55,34.46 L16.79,35.7 C15.6111708,36.0222606 14.5383402,36.6500907 13.68,37.52 C10.9087702,40.3085927 10.9087702,44.8114073 13.68,47.6 L31.68,65.6 C36.4794096,70.424268 42.9950761,73.1499165 49.8,73.1801409 L49.94,73.1801409 C56.658351,73.2024608 63.1068606,70.538085 67.85,65.78 C77.3804089,56.1655517 77.7532975,40.7849945 68.7,30.72 Z M65.23,63.17 C61.1475542,67.2819552 55.5739839,69.5654956 49.78,69.5 C43.9358705,69.4860385 38.33745,67.1473667 34.22,63 L16.22,45 C15.5689308,44.3481639 15.2083845,43.4612201 15.2197278,42.54 C15.2090808,41.6159668 15.5693189,40.7261788 16.22,40.07 C17.6055452,38.7682599 19.7644548,38.7682599 21.15,40.07 L33.74,52.64 C34.4597747,53.2848694 35.5580515,53.2547498 36.2414007,52.5714007 C36.9247498,51.8880515 36.9548694,50.7897747 36.31,50.07 L23.77,37.52 L18.13,31.88 C16.7708029,30.5177139 16.7708029,28.3122861 18.13,26.95 C19.5115639,25.6382463 21.6784361,25.6382463 23.06,26.95 L38.51,42.4 C39.2224473,43.1096858 40.3753141,43.1074472 41.0849999,42.3949999 C41.7946858,41.6825526 41.7924473,40.5296859 41.08,39.82 L20.82,19.56 C19.4716996,18.1932256 19.4716996,15.9967744 20.82,14.63 C22.2069139,13.3219845 24.3730861,13.3219845 25.76,14.63 L29.76,18.63 L34.36,23.23 L43.36,32.23 C44.0724473,32.9424473 45.2275527,32.9424473 45.94,32.23 C46.6524473,31.5175527 46.6524473,30.3624473 45.94,29.65 L36.94,20.65 L32.29,16 C30.9308029,14.6377139 30.9308029,12.4322861 32.29,11.07 C33.6715639,9.75824627 35.8384361,9.75824627 37.22,11.07 L45.82,19.68 C44.400495,22.2552384 44.8528726,25.4585608 46.93,27.54 L51.65,32.26 C48.6817364,36.0548416 48.7734755,41.4090722 51.87,45.1 C51.9048321,45.144854 51.945146,45.1851679 51.99,45.22 C52.6487931,45.8963878 53.7182604,45.9487699 54.44,45.34 C54.8123595,45.0303857 55.0459738,44.5851397 55.0891402,44.1028024 C55.1323066,43.6204652 54.9814653,43.1408126 54.67,42.77 C52.4697334,40.1470391 52.6525013,36.2741 55.09,33.87 C55.1515632,33.8015026 55.2184376,33.737972 55.29,33.68 C55.7108749,33.3607349 55.9732512,32.875169 56.0096628,32.3481585 C56.0460745,31.821148 55.8529688,31.3041125 55.48,30.93 L49.48,24.93 C48.6542214,23.7368387 48.8007711,22.1236859 49.828046,21.0988687 C50.8553209,20.0740514 52.4688201,19.9313659 53.66,20.76 L65,32.15 C65.31,32.46 65.6,32.77 65.9,33.15 C73.6567652,41.756999 73.3630401,54.9176369 65.23,63.17 Z" id="Shape" fill="#000000"></path>
            <path d="M67.1200285,46.68 C67.1257142,48.8296225 66.2724968,50.8924647 64.75,52.41 C64.4050139,52.7472891 63.9424647,52.9373287 63.46,52.9400105 C62.7219707,52.9424935 62.0555028,52.4990376 61.7727336,51.8173227 C61.4899644,51.1356079 61.6468841,50.3506182 62.17,49.83 C63.9013359,48.0868481 63.9013359,45.2731519 62.17,43.53 C61.4575527,42.8175527 61.4575527,41.6624474 62.1700001,40.9500001 C62.8824474,40.2375527 64.0375527,40.2375527 64.75,40.95 C66.2724968,42.4675353 67.1257142,44.5303775 67.1200285,46.68 L67.1200285,46.68 Z" id="Path" fill="#000000"></path>
            <path d="M59.69,17.1400275 C59.207306,17.1400275 58.7443819,16.9482506 58.4030657,16.6069343 C58.0617494,16.2656181 57.87,15.802694 57.87,15.32 C57.8645008,12.8646143 55.8753857,10.8754992 53.42,10.87 C52.4120803,10.87 51.595,10.0529197 51.595,9.045 C51.595,8.03708033 52.4120803,7.22 53.42,7.22 C57.8912222,7.22550983 61.5144902,10.8487778 61.52,15.32 C61.52,15.8044316 61.3268858,16.2688777 60.9834037,16.6104828 C60.6399216,16.9520879 60.1744243,17.1426617 59.69,17.1400275 Z" id="Path" fill="#000000"></path>
            <path d="M65.93,16.76 C64.9248418,16.76 64.11,15.9451582 64.11,14.94 C64.1044809,9.24432702 59.4856757,4.62999733 53.79,4.63 C53.1379903,4.63000002 52.5355085,4.28215699 52.2095036,3.71750002 C51.8834987,3.15284304 51.8834987,2.45715696 52.2095036,1.89249998 C52.5355085,1.32784301 53.1379903,0.98 53.79,0.98 C61.5219865,0.98 67.79,7.2480135 67.79,14.98 C67.7795071,15.4627323 67.5776195,15.9215107 67.228776,16.2553502 C66.8799325,16.5891897 66.4127272,16.770726 65.93,16.76 L65.93,16.76 Z" id="Path" fill="#000000"></path>
            <path d="M15.25,61.58 C10.7787778,61.5744902 7.15550983,57.9512222 7.15,53.48 C7.15,52.4720803 7.96708033,51.655 8.975,51.655 C9.98291967,51.655 10.8,52.4720803 10.8,53.48 C10.8054992,55.9353857 12.7946143,57.9245008 15.25,57.93 C16.2579197,57.93 17.075,58.7470803 17.075,59.755 C17.075,60.7629197 16.2579197,61.58 15.25,61.58 L15.25,61.58 Z" id="Path" fill="#000000"></path>
            <path d="M14.87,67.82 C7.1380135,67.82 0.87,61.5519865 0.87,53.82 C0.87,52.8120803 1.68708033,51.995 2.695,51.995 C3.70291967,51.995 4.52,52.8120803 4.52,53.82 C4.51200159,56.5674349 5.59987622,59.2046477 7.54261429,61.1473857 C9.48535235,63.0901238 12.1225651,64.1779984 14.87,64.17 C15.8779197,64.17 16.695,64.9870803 16.695,65.995 C16.695,67.0029197 15.8779197,67.82 14.87,67.82 L14.87,67.82 Z" id="Path" fill="#000000"></path>
        </g>
    </g>
</svg>
